packages/icons/raw/imported/GenericMultiBet.svg

<svg width="32" height="32" viewBox="0 0 32 32" fill="none" xmlns="http://www.w3.org/2000/svg">
<path d="M5.54223 10.5194L6.03847 10.5807L5.54223 10.5194ZM5.6488 28.088L5.15479 28.1652H5.15479L5.6488 28.088ZM20.7549 28.2789L20.4332 28.6616L20.7549 28.2789ZM19.2695 27.0306L19.5912 26.6478H19.5912L19.2695 27.0306ZM18.4282 27.0037L18.7244 27.4065H18.7244L18.4282 27.0037ZM16.5728 28.3681L16.2766 27.9653H16.2766L16.5728 28.3681ZM15.7656 28.3681L16.0618 27.9653H16.0618L15.7656 28.3681ZM13.8821 26.9831L13.5859 27.3859H13.5859L13.8821 26.9831ZM13.0749 26.9831L13.3711 27.3859H13.3711L13.0749 26.9831ZM11.1914 28.3681L10.8952 27.9653L10.8952 27.9653L11.1914 28.3681ZM10.3842 28.3681L10.6805 27.9653L10.6805 27.9653L10.3842 28.3681ZM8.52885 27.0037L8.23263 27.4065H8.23264L8.52885 27.0037ZM7.68748 27.0306L7.36579 26.6478H7.36579L7.68748 27.0306ZM6.19546 28.2845L6.51715 28.6673H6.51715L6.19546 28.2845ZM21.3012 28.0785L20.806 28.0092V28.0092L21.3012 28.0785ZM7.21265 8.90061L7.2637 9.398L7.21265 8.90061ZM22.1372 24.8788C22.1572 24.6033 21.9501 24.3639 21.6746 24.344C21.3992 24.324 21.1598 24.5311 21.1399 24.8066L22.1372 24.8788ZM8.61683 9.28174C8.89229 9.26236 9.09988 9.02334 9.0805 8.74788C9.06111 8.47242 8.8221 8.26483 8.54663 8.28421L8.61683 9.28174ZM24.8073 3.78274L24.8487 3.28446L24.8073 3.78274ZM12.4042 3.75503L12.4552 4.25242L12.4042 3.75503ZM10.7338 5.37383L11.23 5.4351L10.7338 5.37383ZM10.8403 22.9424L10.3463 23.0196L10.8403 22.9424ZM26.5636 5.50226L26.0656 5.54727V5.54727L26.5636 5.50226ZM26.4927 22.9329L25.9976 22.8636V22.8636L26.4927 22.9329ZM25.9464 23.1333L25.6247 23.5161L25.9464 23.1333ZM24.4611 21.885L24.7828 21.5022L24.4611 21.885ZM23.6197 21.8581L23.9159 22.261L23.6197 21.8581ZM21.7643 23.2225L21.4681 22.8197L21.4681 22.8197L21.7643 23.2225ZM20.9571 23.2225L21.2533 22.8197V22.8197L20.9571 23.2225ZM19.0737 21.8375L18.7774 22.2403L18.7774 22.2403L19.0737 21.8375ZM18.2665 21.8375L18.5627 22.2403L18.5627 22.2403L18.2665 21.8375ZM16.383 23.2225L16.0868 22.8197L16.0868 22.8197L16.383 23.2225ZM15.5758 23.2225L15.872 22.8197L15.872 22.8197L15.5758 23.2225ZM13.7204 21.8581L13.4242 22.261L13.7204 21.8581ZM12.879 21.885L13.2007 22.2678H13.2007L12.879 21.885ZM11.387 23.1389L11.7087 23.5217L11.7087 23.5217L11.387 23.1389ZM13.2887 7.85004C13.0126 7.85004 12.7887 8.07389 12.7887 8.35004C12.7887 8.62618 13.0126 8.85004 13.2887 8.85004V7.85004ZM18.3337 8.85004C18.6099 8.85004 18.8337 8.62618 18.8337 8.35004C18.8337 8.07389 18.6099 7.85004 18.3337 7.85004V8.85004ZM13.2887 11.8072C13.0126 11.8072 12.7887 12.0311 12.7887 12.3072C12.7887 12.5834 13.0126 12.8072 13.2887 12.8072V11.8072ZM24.0514 12.8072C24.3275 12.8072 24.5514 12.5834 24.5514 12.3072C24.5514 12.0311 24.3275 11.8072 24.0514 11.8072V12.8072ZM13.2887 15.7644C13.0126 15.7644 12.7887 15.9883 12.7887 16.2644C12.7887 16.5406 13.0126 16.7644 13.2887 16.7644V15.7644ZM24.0514 16.7644C24.3275 16.7644 24.5514 16.5406 24.5514 16.2644C24.5514 15.9883 24.3275 15.7644 24.0514 15.7644V16.7644ZM7.67517 19.32C7.39903 19.32 7.17517 19.5439 7.17517 19.82C7.17517 20.0962 7.39903 20.32 7.67517 20.32V19.32ZM9.81697 20.32C10.0931 20.32 10.317 20.0962 10.317 19.82C10.317 19.5439 10.0931 19.32 9.81697 19.32V20.32ZM7.67517 15.3446C7.39903 15.3446 7.17517 15.5685 7.17517 15.8446C7.17517 16.1208 7.39903 16.3446 7.67517 16.3446V15.3446ZM9.81697 16.3446C10.0931 16.3446 10.317 16.1208 10.317 15.8446C10.317 15.5685 10.0931 15.3446 9.81697 15.3446V16.3446ZM5.046 10.4581C4.54375 14.526 4.07572 21.2547 5.15479 28.1652L6.14281 28.0109C5.08374 21.2284 5.54195 14.602 6.03847 10.5807L5.046 10.4581ZM21.0766 27.8961L19.5912 26.6478L18.9479 27.4134L20.4332 28.6616L21.0766 27.8961ZM18.132 26.6009L16.2766 27.9653L16.869 28.7709L18.7244 27.4065L18.132 26.6009ZM16.0618 27.9653L14.1783 26.5803L13.5859 27.3859L15.4694 28.7709L16.0618 27.9653ZM12.7787 26.5803L10.8952 27.9653L11.4877 28.7709L13.3711 27.3859L12.7787 26.5803ZM10.6805 27.9653L8.82506 26.6009L8.23264 27.4065L10.088 28.7709L10.6805 27.9653ZM7.36579 26.6478L5.87378 27.9017L6.51715 28.6673L8.00917 27.4134L7.36579 26.6478ZM8.82506 26.6009C8.38726 26.279 7.78215 26.2979 7.36579 26.6478L8.00917 27.4134C8.07156 27.3609 8.16599 27.3575 8.23263 27.4065L8.82506 26.6009ZM10.8952 27.9653C10.8323 28.0116 10.7434 28.0116 10.6805 27.9653L10.088 28.7709C10.5034 29.0764 11.0723 29.0764 11.4877 28.7709L10.8952 27.9653ZM14.1783 26.5803C13.7629 26.2748 13.1941 26.2748 12.7787 26.5803L13.3711 27.3859C13.4341 27.3396 13.5229 27.3396 13.5859 27.3859L14.1783 26.5803ZM16.2766 27.9653C16.2136 28.0116 16.1248 28.0116 16.0618 27.9653L15.4694 28.7709C15.8848 29.0764 16.4536 29.0764 16.869 28.7709L16.2766 27.9653ZM19.5912 26.6478C19.1749 26.2979 18.5698 26.279 18.132 26.6009L18.7244 27.4065C18.791 27.3575 18.8855 27.3609 18.9479 27.4134L19.5912 26.6478ZM20.806 28.0092C20.8162 27.9367 20.869 27.8862 20.9181 27.8682C20.9661 27.8507 21.0293 27.8564 21.0766 27.8961L20.4332 28.6616C20.9172 29.0684 21.7029 28.8152 21.7963 28.1479L20.806 28.0092ZM5.15479 28.1652C5.25753 28.8232 6.03532 29.0722 6.51715 28.6673L5.87378 27.9017C5.92094 27.8621 5.98369 27.8564 6.03105 27.8734C6.07939 27.8907 6.13169 27.9396 6.14281 28.0109L5.15479 28.1652ZM7.1616 8.40322C6.05637 8.51666 5.18103 9.36458 5.046 10.4581L6.03847 10.5807C6.11542 9.95742 6.61472 9.4646 7.2637 9.398L7.1616 8.40322ZM21.1399 24.8066C21.0612 25.8936 20.9519 26.9674 20.806 28.0092L21.7963 28.1479C21.9458 27.0809 22.0572 25.9846 22.1372 24.8788L21.1399 24.8066ZM8.54663 8.28421C8.07952 8.31708 7.61681 8.3565 7.1616 8.40322L7.2637 9.398C7.70735 9.35246 8.15938 9.31393 8.61683 9.28174L8.54663 8.28421ZM24.8487 3.28446C21.7454 3.02664 16.6913 2.81241 12.3531 3.25764L12.4552 4.25242C16.7047 3.81629 21.689 4.02539 24.7659 4.28103L24.8487 3.28446ZM10.2375 5.31256C9.73529 9.38038 9.26727 16.1091 10.3463 23.0196L11.3344 22.8653C10.2753 16.0829 10.7335 9.45645 11.23 5.4351L10.2375 5.31256ZM26.0656 5.54727C26.4634 9.94812 26.8313 16.9114 25.9976 22.8636L26.9879 23.0023C27.838 16.9332 27.4611 9.87719 27.0616 5.45724L26.0656 5.54727ZM26.2681 22.7505L24.7828 21.5022L24.1394 22.2678L25.6247 23.5161L26.2681 22.7505ZM23.3235 21.4553L21.4681 22.8197L22.0605 23.6253L23.9159 22.261L23.3235 21.4553ZM21.2533 22.8197L19.3699 21.4347L18.7774 22.2403L20.6609 23.6253L21.2533 22.8197ZM17.9702 21.4347L16.0868 22.8197L16.6792 23.6253L18.5627 22.2403L17.9702 21.4347ZM15.872 22.8197L14.0166 21.4553L13.4242 22.261L15.2796 23.6253L15.872 22.8197ZM12.5573 21.5022L11.0653 22.7561L11.7087 23.5217L13.2007 22.2678L12.5573 21.5022ZM14.0166 21.4553C13.5788 21.1334 12.9737 21.1523 12.5573 21.5022L13.2007 22.2678C13.2631 22.2153 13.3575 22.2119 13.4242 22.261L14.0166 21.4553ZM16.0868 22.8197C16.0238 22.866 15.935 22.866 15.872 22.8197L15.2796 23.6253C15.695 23.9308 16.2638 23.9308 16.6792 23.6253L16.0868 22.8197ZM19.3699 21.4347C18.9545 21.1292 18.3856 21.1292 17.9702 21.4347L18.5627 22.2403C18.6256 22.194 18.7145 22.194 18.7774 22.2403L19.3699 21.4347ZM21.4681 22.8197C21.4052 22.866 21.3163 22.866 21.2533 22.8197L20.6609 23.6253C21.0763 23.9308 21.6452 23.9308 22.0605 23.6253L21.4681 22.8197ZM24.7828 21.5022C24.3664 21.1523 23.7613 21.1334 23.3235 21.4553L23.9159 22.261C23.9826 22.2119 24.077 22.2154 24.1394 22.2678L24.7828 21.5022ZM25.9976 22.8636C26.0077 22.7911 26.0605 22.7406 26.1097 22.7227C26.1576 22.7051 26.2209 22.7108 26.2681 22.7505L25.6247 23.5161C26.1087 23.9228 26.8944 23.6696 26.9879 23.0023L25.9976 22.8636ZM10.3463 23.0196C10.4491 23.6776 11.2269 23.9266 11.7087 23.5217L11.0653 22.7561C11.1125 22.7165 11.1752 22.7108 11.2226 22.7278C11.2709 22.7451 11.3232 22.7941 11.3344 22.8653L10.3463 23.0196ZM12.3531 3.25764C11.2479 3.37108 10.3726 4.219 10.2375 5.31256L11.23 5.4351C11.307 4.81184 11.8063 4.31903 12.4552 4.25242L12.3531 3.25764ZM24.7659 4.28103C25.4668 4.33925 26.005 4.8761 26.0656 5.54727L27.0616 5.45724C26.9562 4.29105 26.0225 3.38198 24.8487 3.28446L24.7659 4.28103ZM13.2887 8.85004H18.3337V7.85004H13.2887V8.85004ZM13.2887 12.8072H24.0514V11.8072H13.2887V12.8072ZM13.2887 16.7644H24.0514V15.7644H13.2887V16.7644ZM7.67517 20.32H9.81697V19.32H7.67517V20.32ZM7.67517 16.3446H9.81697V15.3446H7.67517V16.3446Z" fill="black"/>
</svg>

<svg width="32" height="32" fill="none" xmlns="http://www.w3.org/2000/svg"><path d="m5.542 10.52.496.06-.496-.06Zm.107 17.568-.494.077.494-.077Zm15.106.19-.322.384.322-.383Zm-1.485-1.247.321-.383-.322.383Zm-.842-.027.296.402-.296-.402Zm-1.855 1.364-.296-.403.296.403Zm-.807 0 .296-.403-.296.403Zm-1.884-1.385-.296.403.296-.403Zm-.807 0 .296.403-.296-.403Zm-1.884 1.385-.296-.403.296.403Zm-.807 0 .296-.403-.296.403ZM8.53 27.004l-.296.402.296-.402Zm-.842.027-.321-.383.321.383Zm-1.492 1.254.322.382-.322-.383Zm15.106-.207-.495-.069.495.07ZM7.213 8.901l.05.497-.05-.497Zm14.924 15.978a.5.5 0 1 0-.997-.072l.997.072ZM8.617 9.282a.5.5 0 1 0-.07-.998l.07.998Zm16.19-5.5.042-.498-.042.499Zm-12.403-.027.051.497-.05-.497Zm-1.67 1.619.496.061-.496-.061Zm.106 17.568-.494.078.494-.078Zm15.724-17.44-.498.045.498-.045Zm-.071 17.43-.495-.068.495.069Zm-.547.201-.321.383.321-.383Zm-1.485-1.248.322-.383-.322.383Zm-.841-.027.296.403-.296-.403Zm-1.856 1.364-.296-.402.296.402Zm-.807 0 .296-.402-.296.402Zm-1.883-1.385-.297.403.297-.402Zm-.808 0 .297.403-.296-.402Zm-1.883 1.386-.296-.403.296.402Zm-.807 0 .296-.403-.296.402Zm-1.856-1.365-.296.403.296-.403Zm-.841.027.322.383-.322-.383Zm-1.492 1.254.322.383-.322-.383ZM13.289 7.85a.5.5 0 0 0 0 1v-1Zm5.045 1a.5.5 0 1 0 0-1v1Zm-5.045 2.957a.5.5 0 0 0 0 1v-1Zm10.762 1a.5.5 0 1 0 0-1v1ZM13.29 15.764a.5.5 0 0 0 0 1v-1Zm10.762 1a.5.5 0 1 0 0-1v1ZM7.675 19.32a.5.5 0 0 0 0 1v-1Zm2.142 1a.5.5 0 1 0 0-1v1Zm-2.142-4.975a.5.5 0 0 0 0 1v-1Zm2.142 1a.5.5 0 1 0 0-1v1Zm-4.771-5.887c-.502 4.068-.97 10.797.109 17.707l.988-.154c-1.06-6.783-.601-13.409-.105-17.43l-.992-.123Zm16.03 17.438-1.485-1.248-.643.765 1.485 1.249.644-.766Zm-2.944-1.295-1.855 1.364.592.806 1.855-1.364-.592-.806Zm-2.07 1.364-1.884-1.385-.592.806 1.883 1.385.593-.806Zm-3.283-1.385-1.884 1.385.593.806 1.883-1.385-.592-.806Zm-2.098 1.385-1.856-1.364-.592.806 1.855 1.364.593-.806Zm-3.315-1.317-1.492 1.254.643.765 1.492-1.254-.643-.765Zm1.46-.047a1.183 1.183 0 0 0-1.46.047l.643.765a.183.183 0 0 1 .224-.006l.592-.806Zm2.07 1.364a.183.183 0 0 1-.216 0l-.592.806c.415.305.984.305 1.4 0l-.593-.806Zm3.282-1.385a1.183 1.183 0 0 0-1.4 0l.593.806a.183.183 0 0 1 .215 0l.592-.806Zm2.099 1.385a.183.183 0 0 1-.215 0l-.593.806c.416.305.985.305 1.4 0l-.592-.806Zm3.314-1.317a1.183 1.183 0 0 0-1.459-.047l.592.806a.183.183 0 0 1 .224.006l.643-.765Zm1.215 1.361a.18.18 0 0 1 .112-.14.163.163 0 0 1 .159.027l-.644.766c.484.406 1.27.153 1.363-.514l-.99-.139Zm-15.651.156c.103.658.88.907 1.362.502l-.643-.765a.163.163 0 0 1 .157-.029c.048.018.1.067.112.138l-.988.154ZM7.162 8.403a2.361 2.361 0 0 0-2.116 2.055l.992.123a1.361 1.361 0 0 1 1.226-1.183l-.102-.995ZM21.14 24.807a48.33 48.33 0 0 1-.334 3.202l.99.139c.15-1.067.261-2.163.341-3.27l-.997-.071ZM8.547 8.284c-.467.033-.93.072-1.385.12l.102.994c.443-.046.895-.084 1.353-.116l-.07-.998Zm16.302-5c-3.104-.257-8.158-.472-12.496-.026l.102.994c4.25-.436 9.234-.227 12.31.029l.084-.997ZM10.238 5.313c-.503 4.067-.97 10.796.108 17.707l.988-.155c-1.059-6.782-.6-13.409-.104-17.43l-.992-.122Zm15.828.234c.397 4.401.765 11.364-.068 17.317l.99.138c.85-6.069.473-13.125.074-17.545l-.996.09Zm.202 17.203-1.485-1.248-.644.766 1.486 1.248.643-.765Zm-2.945-1.295-1.855 1.365.593.805 1.855-1.364-.593-.806Zm-2.07 1.365-1.883-1.385-.593.805 1.884 1.385.592-.805Zm-3.283-1.385-1.883 1.385.592.805 1.884-1.385-.593-.805Zm-2.098 1.385-1.855-1.365-.593.806 1.856 1.364.592-.805Zm-3.315-1.318-1.492 1.254.644.766 1.492-1.254-.644-.766Zm1.46-.047a1.183 1.183 0 0 0-1.46.047l.644.766a.183.183 0 0 1 .223-.007l.593-.806Zm2.07 1.365a.183.183 0 0 1-.215 0l-.592.805c.415.306.984.306 1.4 0l-.593-.805Zm3.283-1.385a1.183 1.183 0 0 0-1.4 0l.593.805a.183.183 0 0 1 .214 0l.593-.805Zm2.098 1.385a.183.183 0 0 1-.215 0l-.592.805c.415.306.984.306 1.4 0l-.593-.805Zm3.315-1.318a1.183 1.183 0 0 0-1.46-.047l.593.806a.183.183 0 0 1 .223.007l.644-.766Zm1.215 1.362a.179.179 0 0 1 .112-.141.163.163 0 0 1 .158.027l-.643.766c.484.407 1.27.154 1.363-.514l-.99-.138Zm-15.652.156c.103.658.88.907 1.363.502l-.644-.766a.163.163 0 0 1 .158-.028c.048.017.1.066.111.137l-.988.155Zm2.007-19.762a2.361 2.361 0 0 0-2.115 2.055l.992.122a1.361 1.361 0 0 1 1.225-1.183l-.102-.994ZM24.766 4.28c.7.058 1.239.595 1.3 1.266l.996-.09a2.405 2.405 0 0 0-2.213-2.173l-.083.997ZM13.289 8.85h5.045v-1h-5.045v1Zm0 3.957H24.05v-1H13.29v1Zm0 3.957H24.05v-1H13.29v1ZM7.675 20.32h2.142v-1H7.675v1Zm0-3.975h2.142v-1H7.675v1Z" fill="#000"/></svg>
